src/assets/icons/ic_dashboard.svg

<?xml version="1.0" encoding="UTF-8"?>
<svg width="24px" height="24px" viewBox="0 0 24 24" version="1.1" xmlns="http://www.w3.org/2000/svg" xmlns:xlink="http://www.w3.org/1999/xlink">
    <!-- Generator: Sketch 49 (51002) - http://www.bohemiancoding.com/sketch -->
    <title>Combined Shape</title>
    <desc>Created with Sketch.</desc>
    <defs></defs>
    <g id="Dashboard-Checkout" stroke="none" stroke-width="1" fill="none" fill-rule="evenodd">
        <g id="Tela-01-Dashboard-Checkout" transform="translate(-43.000000, -109.000000)" fill="#FFFFFF">
            <g id="LateralBar" transform="translate(-7.000000, 109.000000)">
                <g id="Links">
                    <g id="Icon_DashBoard" transform="translate(50.000000, 0.000000)">
                        <path d="M12,24 C5.372583,24 0,18.627417 0,12 C0,5.372583 5.372583,0 12,0 C18.627417,0 24,5.372583 24,12 C24,18.627417 18.627417,24 12,24 Z M6,7.59097137 L6,9.80902863 C6,10.6829217 6.71230215,11.4 7.59097137,11.4 L9.80902863,11.4 C10.6829217,11.4 11.4,10.6876979 11.4,9.80902863 L11.4,7.59097137 C11.4,6.71707831 10.6876979,6 9.80902863,6 L7.59097137,6 C6.71707831,6 6,6.71230215 6,7.59097137 Z M12.6,7.59097137 L12.6,9.80902863 C12.6,10.6829217 13.3123021,11.4 14.1909714,11.4 L16.4090286,11.4 C17.2829217,11.4 18,10.6876979 18,9.80902863 L18,7.59097137 C18,6.71707831 17.2876979,6 16.4090286,6 L14.1909714,6 C13.3170783,6 12.6,6.71230215 12.6,7.59097137 Z M6,14.1909714 L6,16.4090286 C6,17.2829217 6.71230215,18 7.59097137,18 L9.80902863,18 C10.6829217,18 11.4,17.2876979 11.4,16.4090286 L11.4,14.1909714 C11.4,13.3170783 10.6876979,12.6 9.80902863,12.6 L7.59097137,12.6 C6.71707831,12.6 6,13.3123021 6,14.1909714 Z M12.6,14.1909714 L12.6,16.4090286 C12.6,17.2829217 13.3123021,18 14.1909714,18 L16.4090286,18 C17.2829217,18 18,17.2876979 18,16.4090286 L18,14.1909714 C18,13.3170783 17.2876979,12.6 16.4090286,12.6 L14.1909714,12.6 C13.3170783,12.6 12.6,13.3123021 12.6,14.1909714 Z" id="Combined-Shape"></path>
                    </g>
                </g>
            </g>
        </g>
    </g>
</svg>

<svg xmlns="http://www.w3.org/2000/svg" viewBox="0 0 24 24"><path d="M12 24C5.373 24 0 18.627 0 12S5.373 0 12 0s12 5.373 12 12-5.373 12-12 12zM6 7.591v2.218c0 .874.712 1.591 1.591 1.591h2.218c.874 0 1.591-.712 1.591-1.591V7.591C11.4 6.717 10.688 6 9.809 6H7.591C6.717 6 6 6.712 6 7.591zm6.6 0v2.218c0 .874.712 1.591 1.591 1.591h2.218c.874 0 1.591-.712 1.591-1.591V7.591C18 6.717 17.288 6 16.409 6h-2.218c-.874 0-1.591.712-1.591 1.591zm-6.6 6.6v2.218C6 17.283 6.712 18 7.591 18h2.218c.874 0 1.591-.712 1.591-1.591v-2.218c0-.874-.712-1.591-1.591-1.591H7.591C6.717 12.6 6 13.312 6 14.191zm6.6 0v2.218c0 .874.712 1.591 1.591 1.591h2.218c.874 0 1.591-.712 1.591-1.591v-2.218c0-.874-.712-1.591-1.591-1.591h-2.218c-.874 0-1.591.712-1.591 1.591z" fill-rule="evenodd"/></svg>
